src/main/resources/pixelj/resources/svg/light/pxf_file_save.svg

<?xml version="1.0" encoding="UTF-8" standalone="no"?>
<!DOCTYPE svg PUBLIC "-//W3C//DTD SVG 1.1//EN" "http://www.w3.org/Graphics/SVG/1.1/DTD/svg11.dtd">
<svg width="100%" height="100%" viewBox="0 0 16 16" version="1.1" xmlns="http://www.w3.org/2000/svg" xmlns:xlink="http://www.w3.org/1999/xlink" xml:space="preserve" xmlns:serif="http://www.serif.com/" style="fill-rule:evenodd;clip-rule:evenodd;stroke-linejoin:round;stroke-miterlimit:2;">
    <g id="light">
        <g id="green">
            <path d="M3,15l0,-5.48c-0,-0.403 0.16,-0.79 0.445,-1.075c0.285,-0.285 0.672,-0.445 1.075,-0.445c1.732,0 5.228,0 6.96,0c0.403,-0 0.79,0.16 1.075,0.445c0.285,0.285 0.445,0.672 0.445,1.075l-0,5.48l1.254,0c0.412,-0 0.746,-0.334 0.746,-0.746c0,-2.623 0,-11.254 0,-11.254l-2,-2l-1,0l0,6c0,0 -5.261,0 -7.251,0c-0.198,0 -0.389,-0.079 -0.529,-0.22c-0.141,-0.14 -0.22,-0.331 -0.22,-0.529c0,-1.61 0,-5.251 0,-5.251l-2.254,-0c-0.412,0 -0.746,0.334 -0.746,0.746c0,2.428 0,10.08 0,12.508c-0,0.412 0.334,0.746 0.746,0.746c0.569,-0 1.254,-0 1.254,-0Z" style="fill:rgb(41,121,255);"/>
        </g>
        <g id="red">
        </g>
        <g id="gray">
        </g>
        <g id="yellow">
        </g>
        <g id="icon">
            <path d="M12,15l-0,-5.48c0,-0.138 -0.055,-0.27 -0.152,-0.368c-0.098,-0.097 -0.23,-0.152 -0.368,-0.152l-6.96,-0c-0.138,-0 -0.27,0.055 -0.368,0.152c-0.097,0.098 -0.152,0.23 -0.152,0.368l0,5.48l8,-0Z" style="fill:rgb(72,72,74);"/>
            <path d="M11,6l0,-5l-6,0l0,5l6,0Zm-1,-4l-2,0l0,3c0,0 2,0 2,0l0,-3Z" style="fill:rgb(72,72,74);"/>
        </g>
    </g>
    <g id="menu">
    </g>
</svg>

<?xml version="1.0" encoding="UTF-8" standalone="no"?>
<!DOCTYPE svg PUBLIC "-//W3C//DTD SVG 1.1//EN" "http://www.w3.org/Graphics/SVG/1.1/DTD/svg11.dtd">
<svg width="100%" height="100%" viewBox="0 0 16 16" version="1.1" xmlns="http://www.w3.org/2000/svg" xmlns:xlink="http://www.w3.org/1999/xlink" xml:space="preserve" xmlns:serif="http://www.serif.com/" style="fill-rule:evenodd;clip-rule:evenodd;stroke-linejoin:round;stroke-miterlimit:2;">
    <g id="green">
        <path d="M3,15L3,9.52C3,9.117 3.16,8.73 3.445,8.445C3.73,8.16 4.117,8 4.52,8C6.252,8 9.748,8 11.48,8C11.883,8 12.27,8.16 12.555,8.445C12.84,8.73 13,9.117 13,9.52L13,15L15,15L15,3L13,1L12,1L12,7C12,7 4,7 4,7L4,1L1,1L1,15L3,15Z" style="fill:rgb(41,121,255);"/>
    </g>
    <g id="red">
    </g>
    <g id="gray">
    </g>
    <g id="yellow">
    </g>
    <g id="icon">
        <path d="M12,15L12,9.52C12,9.382 11.945,9.25 11.848,9.152C11.75,9.055 11.618,9 11.48,9L4.52,9C4.382,9 4.25,9.055 4.152,9.152C4.055,9.25 4,9.382 4,9.52L4,15L12,15Z" style="fill:rgb(72,72,74);"/>
        <path d="M11,6L11,1L5,1L5,6L11,6ZM10,2L8,2L8,5C8,5 10,5 10,5L10,2Z" style="fill:rgb(72,72,74);"/>
    </g>
    <g id="menu">
    </g>
</svg>
